X: 1
T: Maggie Brown's Favourite
M: 6/8
L: 1/8
R: jig
K: Gmaj
dBG GAB|E2E E2c|AFD DEF|G2G G2g|
dBG Bcd|E2E E2c|AFD DEF|GBA G3:|
bgb afd|efg gfe|dBg dBG|AFD Dga|
bgb afd|efg gfe|faf ge^c|d3 de=f|
ece dBd|cac BgB|Ace dBG|FAF DEF|
GAB EFG|ABc def|gdB cAF|G3 G2g||
